flaticon/stationery/notepad.svg

<svg xmlns="http://www.w3.org/2000/svg" width="32" height="32" viewBox="0 0 24 24">
    <path d="M 16.71875 4.050781 L 16.71875 2.367188 L 14.007812 2.367188 C 14.027344 2.257812 14.039062 2.148438 14.039062 2.039062 C 14.039062 0.914062 13.125 0 12 0 C 10.878906 0 9.964844 0.914062 9.964844 2.039062 C 9.964844 2.148438 9.972656 2.257812 9.992188 2.367188 L 7.28125 2.367188 L 7.28125 4.050781 L 3.917969 4.050781 L 3.917969 24 L 20.082031 24 L 20.082031 4.050781 Z M 10.984375 2.039062 C 10.984375 1.476562 11.441406 1.019531 12 1.019531 C 12.558594 1.019531 13.015625 1.476562 13.015625 2.039062 C 13.015625 2.152344 12.996094 2.261719 12.960938 2.367188 L 11.039062 2.367188 C 11.003906 2.261719 10.984375 2.152344 10.984375 2.039062 Z M 8.304688 3.390625 L 15.695312 3.390625 L 15.695312 4.199219 C 15.695312 5.046875 15.007812 5.734375 14.164062 5.734375 L 9.835938 5.734375 C 8.992188 5.734375 8.304688 5.046875 8.304688 4.199219 Z M 19.0625 22.980469 L 4.9375 22.980469 L 4.9375 5.070312 L 7.4375 5.070312 C 7.792969 6.050781 8.734375 6.753906 9.835938 6.753906 L 14.164062 6.753906 C 15.265625 6.753906 16.207031 6.050781 16.5625 5.070312 L 19.0625 5.070312 Z M 19.0625 22.980469"/>
</svg>

<svg xmlns="http://www.w3.org/2000/svg" width="32" height="32" viewBox="0 0 24 24">
    <path d="M16.719 4.05V2.368h-2.711c.02-.11.031-.219.031-.328A2.04 2.04 0 0 0 12 0a2.04 2.04 0 0 0-2.008 2.367h-2.71v1.684H3.917V24h16.164V4.05zm-5.735-2.01c0-.563.457-1.02 1.016-1.02a1.02 1.02 0 0 1 .96 1.347h-1.92a1.032 1.032 0 0 1-.056-.328zm-2.68 1.35h7.391v.81c0 .847-.687 1.534-1.53 1.534h-4.33A1.535 1.535 0 0 1 8.306 4.2zm10.758 19.59H4.938V5.07h2.5a2.555 2.555 0 0 0 2.399 1.684h4.328a2.555 2.555 0 0 0 2.399-1.684h2.5zm0 0"/>
</svg>
